build/img/icons/telegramm.svg

<svg width="27" height="28" viewBox="0 0 27 28" fill="none" xmlns="http://www.w3.org/2000/svg">
<g clip-path="url(#clip0_34_87)">
<path d="M13.5 28C20.9558 28 27 21.732 27 14C27 6.26801 20.9558 0 13.5 0C6.04416 0 0 6.26801 0 14C0 21.732 6.04416 28 13.5 28Z" fill="#039BE5"/>
<path d="M6.17737 13.6967L19.1936 8.49216C19.7977 8.26583 20.3254 8.645 20.1296 9.59233L20.1307 9.59116L17.9145 20.419C17.7502 21.1867 17.3104 21.3733 16.695 21.0117L13.32 18.4322L11.6921 20.0585C11.5121 20.2452 11.3602 20.4027 11.0115 20.4027L11.2511 16.8408L17.5061 10.9807C17.7784 10.7322 17.4454 10.5922 17.0865 10.8395L9.35662 15.8865L6.02437 14.8085C5.30099 14.5705 5.28524 14.0583 6.17737 13.6967Z" fill="white"/>
</g>
<defs>
<clipPath id="clip0_34_87">
<rect width="27" height="28" fill="white"/>
</clipPath>
</defs>
</svg>

<svg width="27" height="28" fill="none" xmlns="http://www.w3.org/2000/svg"><g clip-path="url(#clip0_34_87)"><path d="M13.5 28C20.956 28 27 21.732 27 14S20.956 0 13.5 0 0 6.268 0 14s6.044 14 13.5 14z" fill="#039BE5"/><path d="M6.177 13.697l13.017-5.205c.604-.226 1.131.153.936 1.1l-2.215 10.827c-.165.768-.605.954-1.22.593l-3.375-2.58-1.628 1.627c-.18.186-.332.344-.68.344l.24-3.562 6.254-5.86c.272-.249-.06-.389-.42-.142l-7.73 5.047-3.332-1.077c-.723-.239-.739-.75.153-1.112z" fill="#fff"/></g><defs><clipPath id="clip0_34_87"><path fill="#fff" d="M0 0h27v28H0z"/></clipPath></defs></svg>
